X:270
T: MF[ERK2 AUF O CHRIST
N: E0867
O: Europa, Mitteleuropa, Deutschland, Unter - Lahnkreis, Becheln;
R: Hochzeits -, Ehestands - Lied, Verlobung
M: 6/8
L: 1/8
K: F
C | F2FAGF | G2GG2
A | F2FAGF | G3
c3 | B3A3 | G3z2
G | G2ABAG | F2AcB
A | G2ABAG | F2AcB
A | G3F2A | c2dc2
B | A3G3 | F3z2

